icons/image-24.svg

<svg width="24" height="24" viewBox="0 0 24 24" xmlns="http://www.w3.org/2000/svg">
  <path fill-rule="evenodd" clip-rule="evenodd" d="M19.25 4.5H4.75C4.61193 4.5 4.5 4.61193 4.5 4.75V19.25C4.5 19.3881 4.61193 19.5 4.75 19.5H4.93937L14.7626 9.67675C15.446 8.99333 16.5541 8.99333 17.2375 9.67675L19.5 11.9393V4.75C19.5 4.61193 19.3881 4.5 19.25 4.5ZM19.5 14.0606L16.1768 10.7374C16.0792 10.6398 15.9209 10.6398 15.8233 10.7374L7.06069 19.5H19.25C19.3881 19.5 19.5 19.3881 19.5 19.25V14.0606ZM4.75 3C3.7835 3 3 3.7835 3 4.75V19.25C3 20.2165 3.7835 21 4.75 21H19.25C20.2165 21 21 20.2165 21 19.25V4.75C21 3.7835 20.2165 3 19.25 3H4.75ZM8.5 9.5C9.05228 9.5 9.5 9.05228 9.5 8.5C9.5 7.94772 9.05228 7.5 8.5 7.5C7.94772 7.5 7.5 7.94772 7.5 8.5C7.5 9.05228 7.94772 9.5 8.5 9.5ZM8.5 11C9.88071 11 11 9.88071 11 8.5C11 7.11929 9.88071 6 8.5 6C7.11929 6 6 7.11929 6 8.5C6 9.88071 7.11929 11 8.5 11Z"/>
</svg>

<svg xmlns="http://www.w3.org/2000/svg" width="24" height="24" viewBox="0 0 24 24"><path fill-rule="evenodd" d="M19.25 4.5H4.75a.25.25 0 00-.25.25v14.5c0 .138.112.25.25.25h.19l9.823-9.823a1.75 1.75 0 012.475 0l2.262 2.262V4.75a.25.25 0 00-.25-.25zm.25 9.56l-3.323-3.323a.25.25 0 00-.354 0L7.061 19.5H19.25a.25.25 0 00.25-.25v-5.19zM4.75 3A1.75 1.75 0 003 4.75v14.5c0 .966.784 1.75 1.75 1.75h14.5A1.75 1.75 0 0021 19.25V4.75A1.75 1.75 0 0019.25 3H4.75zM8.5 9.5a1 1 0 100-2 1 1 0 000 2zm0 1.5a2.5 2.5 0 100-5 2.5 2.5 0 000 5z"/></svg>
